X:77
T:Songs of Thankfulness and Praise
%%stretchlast false
M:4/4
L:1/4
K:Eb clef=C1
"^I"[EBg]3/2 [EBg]/ "^V¹"[DFBb] "^I"[EGBg] | "^vi"[CGce] "^V"[B,Bdf] "^I"[EBeg]2 | [EBg]3/2 [EBg]/ "^V¹"[DFBb] "^I"[EBg] | "^vi"[CGce] "^ii¹"[A,Acf] "^V/vi"[G,D=Bg]2 | "^vi"[CEcg]3/2 [CEcg]/ "^ii"[F,Fca] [F,Fca] | "^V"[B,DBf] [B,DBf]/ [B,DBf]/ "^I"[E,EBg]2 | [EBg] "^♭v°¹"[CEc=a] "^V¹"[DFBb] "^vi¹"[EGce] | "^V²"[FBd] "^II"[F,F=Ac]/ "^II7"[F,E=Ac]/ "^V"[B,DB]2 | [B,FBd] [B,FBd]/ [B,FBd]/ [B,DBf] "^V7³"[A,FBd] | "^I¹"[G,EBe] "^i"[F,EAf]/ [F,DAf]/ "^I"[E,EBg]2 | [E,EBg]3/2 [E,EBg]/ [EGeb] "^V/IV³"[_DBeg] | "^IV¹"[CAea] "^♯vi"[B,A_db]/ [B,G_db]/ "^vi+"[A,Acc']2 | "^VI¹"[=EGcc'] "^VI"[Cc=ec']/ "^V/ii"[Cc=ec']/ "^ii"[Fcfa] [FAcf]/ [FAcf]/ | "^V¹"[DFBb] "^V"[B,Bdb]/ [B,Bdb]/ "^I"[EBeg]2 | "^IV¹"[CAea] "^IV"[A,Aec'] "^I¹"[G,Beb] "^vi"[CGe] | "^I²"[B,Beg] "^V"[B,Bdf]/ "^V7"[B,Adf]/ "^I"[E,Ge]2 |]
